resources/architecture.svg

<svg height="750" viewBox="0 0 900 750" width="900" xmlns="http://www.w3.org/2000/svg" xmlns:xlink="http://www.w3.org/1999/xlink"><marker id="a" markerHeight="8" markerWidth="10" orient="auto" refX="9" refY="4"><path d="m0 0 10 4-10 4 2-4z" fill="#3b82f6"/></marker><marker id="b" markerHeight="8" markerWidth="10" orient="auto" refX="9" refY="4"><path d="m0 0 10 4-10 4 2-4z" fill="#22c55e"/></marker><marker id="c" markerHeight="6" markerWidth="8" orient="auto" refX="7" refY="3"><path d="m0 0 8 3-8 3 1.5-3z" fill="#94a3b8"/></marker><path d="m0 0h900v750h-900z" fill="#f8fafc"/><g fill="#94a3b8" font-family="'Inter', sans-serif" font-size="12" font-weight="700" letter-spacing=".1em"><text x="40" y="40">① 用户与平台层 / CLIENTS &amp; CHANNELS</text><text x="40" y="200">② 网关层 / GATEWAY</text><text x="40" y="320">③ 业务服务层 / CORE SERVICES</text><text x="40" y="480">④ 智能引擎 / AI ENGINE</text><text x="40" y="630">⑤ 基础设施 / INFRASTRUCTURE</text></g><rect fill="#f1f5f9" height="50" rx="6" stroke="#94a3b8" width="200" x="350" y="650"/><text fill="#1e293b" font-family="'Inter', sans-serif" font-size="13" font-weight="600" text-anchor="middle" x="450" y="675">Infrastructure</text><text fill="#64748b" font-family="'Inter', sans-serif" font-size="10" text-anchor="middle" x="450" y="690">PostgreSQL · Redis · Celery</text><path d="m200 130v84" fill="none" marker-end="url(#a)" stroke="#3b82f6" stroke-width="1.5"/><path d="m200 262v78" fill="none" marker-end="url(#a)" stroke="#3b82f6" stroke-width="1.5"/><text fill="#3b82f6" font-family="'Inter', sans-serif" font-size="10" font-weight="500" x="210" y="180">Webhook 回调</text><path d="m450 130v84" fill="none" marker-end="url(#a)" stroke="#3b82f6" stroke-width="2"/><path d="m450 262v78" fill="none" marker-end="url(#a)" stroke="#3b82f6" stroke-width="2"/><text fill="#3b82f6" font-family="'Inter', sans-serif" font-size="10" font-weight="500" x="455" y="300">访客请求</text><path d="m700 130v40h-220v44" fill="none" marker-end="url(#a)" stroke="#3b82f6" stroke-width="1.5"/><path d="m350 395h-50" fill="none" marker-end="url(#b)" stroke="#22c55e" stroke-width="2.5"/><text fill="#16a34a" font-family="'Inter', sans-serif" font-size="10" font-weight="500" x="305" y="388">下行回复</text><path d="m150 340v-78" fill="none" marker-end="url(#b)" stroke="#22c55e" stroke-width="2.5"/><path d="m150 214v-84" fill="none" marker-end="url(#b)" stroke="#22c55e" stroke-width="2.5"/><text fill="#16a34a" font-family="'Inter', sans-serif" font-size="10" font-weight="500" x="100" y="285">API 推送</text><path d="m550 380h50" fill="none" marker-end="url(#c)" stroke="#94a3b8" stroke-width="1.2"/><path d="m450 420v80" fill="none" marker-end="url(#c)" stroke="#94a3b8" stroke-width="1.2"/><path d="m450 570v80" fill="none" marker-end="url(#c)" stroke="#94a3b8"/></svg>

<svg width="900" height="750" viewBox="0 0 900 750" xmlns="http://www.w3.org/2000/svg">
  <defs>
    <filter id="box-shadow" x="-10%" y="-10%" width="120%" height="120%">
      <feDropShadow dx="0" dy="2" stdDeviation="3" flood-opacity="0.1"/>
    </filter>
    <linearGradient id="grad-blue" x1="0%" y1="0%" x2="0%" y2="100%">
      <stop offset="0%" style="stop-color:#f0f9ff" /><stop offset="100%" style="stop-color:#e0f2fe" />
    </linearGradient>
    <linearGradient id="grad-green" x1="0%" y1="0%" x2="0%" y2="100%">
      <stop offset="0%" style="stop-color:#f0fdf4" /><stop offset="100%" style="stop-color:#dcfce7" />
    </linearGradient>
    
    <marker id="arrow-in" markerWidth="10" markerHeight="8" refX="9" refY="4" orient="auto">
      <path d="M0,0 L10,4 L0,8 L2,4 Z" fill="#3b82f6" />
    </marker>
    <marker id="arrow-out" markerWidth="10" markerHeight="8" refX="9" refY="4" orient="auto">
      <path d="M0,0 L10,4 L0,8 L2,4 Z" fill="#22c55e" />
    </marker>
    <marker id="arrow-internal" markerWidth="8" markerHeight="6" refX="7" refY="3" orient="auto">
      <path d="M0,0 L8,3 L0,6 L1.5,3 Z" fill="#94a3b8" />
    </marker>
  </defs>

  <style>
    .label-layer { font-family: 'Inter', sans-serif; font-size: 12px; font-weight: 700; fill: #94a3b8; text-transform: uppercase; letter-spacing: 0.1em; }
    .text-main { font-family: 'Inter', sans-serif; font-size: 13px; font-weight: 600; fill: #1e293b; text-anchor: middle; }
    .text-sub { font-family: 'Inter', sans-serif; font-size: 10px; fill: #64748b; text-anchor: middle; }
    .text-flow { font-family: 'Inter', sans-serif; font-size: 10px; font-weight: 500; }
  </style>

  <rect width="900" height="750" fill="#f8fafc" />

  <!-- Layer Labels -->
  <text x="40" y="40" class="label-layer">① 用户与平台层 / CLIENTS &amp; CHANNELS</text>
  <text x="40" y="200" class="label-layer">② 网关层 / GATEWAY</text>
  <text x="40" y="320" class="label-layer">③ 业务服务层 / CORE SERVICES</text>
  <text x="40" y="480" class="label-layer">④ 智能引擎 / AI ENGINE</text>
  <text x="40" y="630" class="label-layer">⑤ 基础设施 / INFRASTRUCTURE</text>

  <!-- ROW 1: PLATFORMS -->
  <g filter="url(#box-shadow)">
    <rect x="50" y="60" width="300" height="70" rx="8" fill="url(#grad-blue)" stroke="#3b82f6" stroke-width="1.5" />
    <text x="200" y="90" class="text-main">External Channels</text>
    <text x="200" y="110" class="text-sub">企业微信 · 飞书 · 钉钉</text>
  </g>
  <g filter="url(#box-shadow)">
    <rect x="375" y="60" width="150" height="70" rx="8" fill="url(#grad-blue)" stroke="#3b82f6" stroke-width="1.5" />
    <text x="450" y="90" class="text-main">Web Widget</text>
    <text x="450" y="110" class="text-sub">内置访客端</text>
  </g>
  <g filter="url(#box-shadow)">
    <rect x="625" y="60" width="150" height="70" rx="8" fill="url(#grad-blue)" stroke="#3b82f6" stroke-width="1.5" />
    <text x="700" y="90" class="text-main">Dashboard</text>
    <text x="700" y="110" class="text-sub">管理后台</text>
  </g>

  <!-- ROW 2: GATEWAY -->
  <g filter="url(#box-shadow)">
    <rect x="100" y="215" width="700" height="46" rx="23" fill="#fff" stroke="#f59e0b" stroke-width="1.5" />
    <text x="450" y="244" class="text-main">Nginx Reverse Proxy</text>
  </g>

  <!-- ROW 3: SERVICES -->
  <g filter="url(#box-shadow)">
    <rect x="100" y="340" width="200" height="80" rx="10" fill="url(#grad-green)" stroke="#22c55e" stroke-width="1.5" />
    <text x="200" y="375" class="text-main">tgo-platform</text>
    <text x="200" y="395" class="text-sub">第三方平台对接服务</text>
  </g>
  <g filter="url(#box-shadow)">
    <rect x="350" y="340" width="200" height="80" rx="10" fill="url(#grad-green)" stroke="#22c55e" stroke-width="2" />
    <text x="450" y="375" class="text-main">tgo-api</text>
    <text x="450" y="395" class="text-sub">核心业务中枢</text>
  </g>
  <g filter="url(#box-shadow)">
    <rect x="600" y="340" width="200" height="80" rx="10" fill="url(#grad-green)" stroke="#22c55e" stroke-width="1.5" />
    <text x="700" y="375" class="text-main">WuKongIM</text>
    <text x="700" y="395" class="text-sub">实时消息投递</text>
  </g>

  <!-- ROW 4 & 5 -->
  <g filter="url(#box-shadow)">
    <rect x="350" y="500" width="200" height="70" rx="10" fill="#f5f3ff" stroke="#8b5cf6" stroke-width="1.5" />
    <text x="450" y="530" class="text-main">AI Orchestrator</text>
    <text x="450" y="550" class="text-sub">tgo-ai / tgo-rag / LLMs</text>
  </g>
  <rect x="350" y="650" width="200" height="50" rx="6" fill="#f1f5f9" stroke="#94a3b8" />
  <text x="450" y="675" class="text-main">Infrastructure</text>
  <text x="450" y="690" class="text-sub">PostgreSQL · Redis · Celery</text>

  <!-- ═══════════════════════════════════════════════════════════════ -->
  <!-- REFINED FLOWS: Inbound & Outbound via Gateway -->
  <!-- ═══════════════════════════════════════════════════════════════ -->
  
  <!-- [INBOUND - BLUE] -->
  <!-- External -> Gateway -> Platform -->
  <path d="M200 130 V 214" stroke="#3b82f6" stroke-width="1.5" fill="none" marker-end="url(#arrow-in)" />
  <path d="M200 262 V 340" stroke="#3b82f6" stroke-width="1.5" fill="none" marker-end="url(#arrow-in)" />
  <text x="210" y="180" class="text-flow" fill="#3b82f6">Webhook 回调</text>

  <!-- Widget -> Gateway -> API -->
  <path d="M450 130 V 214" stroke="#3b82f6" stroke-width="2" fill="none" marker-end="url(#arrow-in)" />
  <path d="M450 262 V 340" stroke="#3b82f6" stroke-width="2" fill="none" marker-end="url(#arrow-in)" />
  <text x="455" y="300" class="text-flow" fill="#3b82f6">访客请求</text>
  
  <path d="M700 130 V 170 H 480 V 214" stroke="#3b82f6" stroke-width="1.5" fill="none" marker-end="url(#arrow-in)" />

  <!-- [OUTBOUND - GREEN] -->
  <!-- API -> Platform (Internal) -->
  <path d="M350 395 H 300" stroke="#22c55e" stroke-width="2.5" fill="none" marker-end="url(#arrow-out)" />
  <text x="305" y="388" class="text-flow" fill="#16a34a" font-weight="bold">下行回复</text>
  
  <!-- Platform -> Gateway -> External Channels (API Push) -->
  <path d="M150 340 V 262" stroke="#22c55e" stroke-width="2.5" fill="none" marker-end="url(#arrow-out)" />
  <path d="M150 214 V 130" stroke="#22c55e" stroke-width="2.5" fill="none" marker-end="url(#arrow-out)" />
  <text x="100" y="285" class="text-flow" fill="#16a34a">API 推送</text>

  <!-- [INTERNAL - GRAY] -->
  <path d="M550 380 H 600" stroke="#94a3b8" stroke-width="1.2" fill="none" marker-end="url(#arrow-internal)" />
  <path d="M450 420 V 500" stroke="#94a3b8" stroke-width="1.2" fill="none" marker-end="url(#arrow-internal)" />
  <path d="M450 570 V 650" stroke="#94a3b8" stroke-width="1" fill="none" marker-end="url(#arrow-internal)" />

</svg>
